site/src/frontend/rounds/illegal_search/assets/fuse_box/fusebox_draft5_switch_pressed_right.svg

<?xml version="1.0" encoding="UTF-8" standalone="no"?>
<!-- Created with Inkscape (http://www.inkscape.org/) -->

<svg
   width="97.999809"
   height="38.000019"
   viewBox="0 0 97.999809 38.000019"
   version="1.1"
   id="svg1"
   xml:space="preserve"
   xmlns="http://www.w3.org/2000/svg"
   xmlns:svg="http://www.w3.org/2000/svg"><defs
     id="defs1" /><g
     id="g108"
     style="display:inline"
     transform="translate(-830.00019,-69.000042)"><g
       id="g397"><path
         d="M 927,77.100076 V 106.00006 H 831.00019 V 77.691731 Z"
         style="display:inline;fill:#0f0f0f;fill-opacity:1;stroke:#000000;stroke-width:2;stroke-linejoin:round;stroke-dasharray:none"
         id="path379" /><path
         style="fill:#6f6f6f;fill-opacity:1;stroke:#000000;stroke-width:2;stroke-linejoin:round;stroke-dasharray:none;stroke-opacity:1"
         d="M 885.54942,77.365785 V 97.999392 L 899.52928,91 V 70 Z"
         id="path374" /><path
         style="fill:#202020;fill-opacity:1;stroke:#000000;stroke-width:2;stroke-linejoin:round;stroke-dasharray:none;stroke-opacity:1"
         d="m 899.52928,70 16.80736,6 v 21 l -16.80736,-6 z"
         id="path375" /><path
         id="path377"
         style="fill:#404040;fill-opacity:1;stroke:#000000;stroke-width:2;stroke-linejoin:round;stroke-dasharray:none;stroke-opacity:1"
         d="m 854,105.99994 c 0,0 4.70657,-3.90131 7.35045,-5.19036 3.08228,-1.502801 6.38374,-2.656849 9.76192,-3.245738 3.14843,-0.548838 6.39352,-0.401689 9.58491,-0.231838 1.70678,0.09084 3.4134,0.306103 5.08398,0.667388 L 899.52928,91 l 16.80736,6 -12.62057,5.59576 2.58529,3.4043 h -6.3048 z" /><path
         style="fill:#4c4c4c;fill-opacity:1;stroke:#000000;stroke-width:2;stroke-linejoin:round;stroke-dasharray:none;stroke-opacity:1"
         d="M 854,106.00006 V 82.929904 c 0,0 4.67466,-3.585999 7.35045,-4.74637 3.07724,-1.334458 6.41985,-2.156466 9.76192,-2.440617 3.19255,-0.271437 6.4076,0.310507 9.58491,0.723642 1.63119,0.212098 4.85214,0.899226 4.85214,0.899226 v 20.633607 c 0,0 -3.22211,-0.575598 -4.85214,-0.667388 -3.19085,-0.179682 -6.43648,-0.317 -9.58491,0.231838 -3.37817,0.58889 -6.70139,1.699115 -9.76192,3.245738 C 858.67341,102.16241 854,106.00006 854,106.00006 Z"
         id="path378" /></g></g></svg>

<?xml version="1.0" encoding="UTF-8"?>
<svg width="98" height="38" version="1.1" viewBox="0 0 98 38" xml:space="preserve" xmlns="http://www.w3.org/2000/svg"><g transform="translate(-830 -69)"><g stroke="#000" stroke-linejoin="round" stroke-width="2"><path d="m927 77.1v28.9h-96v-28.308z" fill="#0f0f0f"/><path d="m885.55 77.366v20.634l13.98-6.9994v-21z" fill="#6f6f6f"/><path d="m899.53 70 16.807 6v21l-16.807-6z" fill="#202020"/><path d="m854 106s4.7066-3.9013 7.3504-5.1904c3.0823-1.5028 6.3837-2.6568 9.7619-3.2457 3.1484-0.54884 6.3935-0.40169 9.5849-0.23184 1.7068 0.09084 3.4134 0.3061 5.084 0.66739l13.748-6.9994 16.807 6-12.621 5.5958 2.5853 3.4043h-6.3048z" fill="#404040"/><path d="m854 106v-23.07s4.6747-3.586 7.3504-4.7464c3.0772-1.3345 6.4198-2.1565 9.7619-2.4406 3.1926-0.27144 6.4076 0.31051 9.5849 0.72364 1.6312 0.2121 4.8521 0.89923 4.8521 0.89923v20.634s-3.2221-0.5756-4.8521-0.66739c-3.1908-0.17968-6.4365-0.317-9.5849 0.23184-3.3782 0.58889-6.7014 1.6991-9.7619 3.2457-2.677 1.3528-7.3504 5.1905-7.3504 5.1905z" fill="#4c4c4c"/></g></g></svg>
